X: 934
T: All Alive And Merry
R: jig
M: 6/8
K: Dmajor
D>ED DFD|DFD B3|ABc def|ged cBA|
D>ED DFD|DFD B3|ABc dcB|ABG FED:|
|:A>BA AcA|AcA f3|efg agf|efd cBA|
AcA ecA|AcA B3|ABc dcB|ABG FED:|
|:D2d F2d|D2d B3|ABc def|ged cBA|
dDd dFd|dDd B3|ABc dcB|ABG FED:|

